X:1
T:Schottish from Matts Andersson
R:schottis
Z:Transcribed by George Smith, 12/98
M:2/4
L:1/16
Q:1/4=135
K:D
P:A
|: "D"f3g f3e| d4 d4 | "A"A3B A3G | "D"F4 F4 | "A"E3E c3c \
| E3E c3c | "D"d4 d2 F2 | "A"A8 \
| "D"f3g f3e| d4 d4 | "A"A3B A3G | "D"F4 F4 | "A"E3E c3c \
| E3E c3c | "D"d4 d4 | d8 :|
K:A
P:B
| "A"e3f e3d| c3A c3e| a4 a3c | e8 | "E"B3B g3g|  B3B g3g| "A"a4 a3c | e8\
| e3f e3d| c3A c3e| a4 a3c | e8 | "E"B3B g3g|  B3B g3g| "A"a4 a4  | a8\
| e3f e3d| c3A c3e| a4 a3c | e8 | "E"B3B g3g|  B3B g3g| "A"a4 a3c | e8\
| e3f e3d| c3A c3e| a4 a3c | e8 | "E"B3B g3g|  B3B g3g| "A"a4 a4  | a8||

